src/blocks/social/ic-twitter.svg

<?xml version="1.0" encoding="UTF-8"?>
<svg width="30px" height="30px" viewBox="0 0 30 30" version="1.1" xmlns="http://www.w3.org/2000/svg" xmlns:xlink="http://www.w3.org/1999/xlink">
    <!-- Generator: Sketch 41.2 (35397) - http://www.bohemiancoding.com/sketch -->
    <title>ic-Twitter-white</title>
    <desc>Created with Sketch.</desc>
    <defs></defs>
    <g id="Symbols" stroke="none" stroke-width="1" fill="none" fill-rule="evenodd">
        <g id="ic-Twitter-white" fill="#3aa9f2">
            <g id="Combined-Shape">
                <path d="M0,15 C0,6.71572834 6.71572834,0 15,0 C23.2842717,0 30,6.71572834 30,15 C30,23.2842717 23.2842717,30 15,30 C6.71572834,30 0,23.2842717 0,15 Z M14.5507516,12.1921879 L14.5822282,12.7112217 L14.0576187,12.6476666 C12.1480401,12.4040384 10.4797819,11.5778213 9.0633363,10.1902002 L8.37085177,9.50168594 L8.19248454,10.0101273 C7.8147657,11.1435277 8.05608607,12.3404833 8.84300031,13.1455154 C9.26268791,13.5904015 9.1682582,13.6539567 8.44429709,13.3891435 C8.19248454,13.3044033 7.97214855,13.2408481 7.95116417,13.2726257 C7.87771884,13.3467734 8.1295314,14.3106934 8.32888301,14.6920243 C8.60167994,15.2216507 9.15776601,15.7406846 9.76631303,16.0478679 L10.2804303,16.291496 L9.67188332,16.3020885 C9.08432068,16.3020885 9.0633363,16.312681 9.12628944,16.5351241 C9.33613324,17.2236384 10.1650162,17.9545228 11.088329,18.2722986 L11.7388447,18.4947417 L11.1722665,18.8337025 C10.3328913,19.3209588 9.34662543,19.5963645 8.36035958,19.6175496 C7.88821103,19.6281421 7.5,19.6705122 7.5,19.7022898 C7.5,19.8082151 8.78004717,20.4013966 9.52499266,20.6344322 C11.7598291,21.3229465 14.4143532,21.0263557 16.4078693,19.8505852 C17.8243149,19.0137755 19.2407605,17.3507487 19.9017685,15.7406846 C20.258503,14.8826898 20.6152374,13.3149958 20.6152374,12.5629263 C20.6152374,12.0756701 20.646714,12.0121149 21.2342766,11.4295259 C21.5805189,11.090565 21.9057768,10.7198266 21.9687299,10.6139013 C22.0736518,10.4126433 22.0631596,10.4126433 21.528058,10.5927163 C20.6362218,10.9104921 20.5103155,10.868122 20.9509875,10.3914582 C21.2762454,10.0524974 21.6644564,9.43813078 21.6644564,9.25805781 C21.6644564,9.22628023 21.5070736,9.27924287 21.3287063,9.37457561 C21.1398469,9.48050089 20.7201593,9.6393888 20.4053936,9.73472154 L19.8388154,9.91479451 L19.3246981,9.56524111 C19.0414089,9.37457561 18.6427057,9.16272507 18.4328619,9.0991699 C17.8977602,8.95087452 17.0793694,8.97205957 16.5967287,9.14154001 C15.2852049,9.61820374 14.4563219,10.8469369 14.5507516,12.1921879 Z" fill="#FFFFFF"></path>
            </g>
        </g>
    </g>
</svg>

<svg width="24" height="24" viewBox="0 0 24 24" xmlns="http://www.w3.org/2000/svg"><title>02707DBF-2AD9-4BA7-92F2-E210CCD5F353</title><g fill="none" fill-rule="evenodd"><path d="M0 15C0 6.716 6.716 0 15 0c8.284 0 15 6.716 15 15 0 8.284-6.716 15-15 15-8.284 0-15-6.716-15-15z" fill="#55ACEE"/><path d="M14.55 12.192l.032.52-.524-.064c-1.91-.244-3.578-1.07-4.995-2.458l-.692-.688-.179.508c-.377 1.134-.136 2.33.651 3.136.42.444.325.508-.399.243-.252-.085-.472-.148-.493-.116-.073.074.179 1.038.378 1.419.273.53.829 1.049 1.437 1.356l.514.243-.608.011c-.588 0-.609.01-.546.233.21.689 1.039 1.42 1.962 1.737l.65.223-.566.339a5.907 5.907 0 0 1-2.812.784c-.472.01-.86.053-.86.084 0 .106 1.28.7 2.025.932 2.235.689 4.89.392 6.883-.783 1.416-.837 2.833-2.5 3.494-4.11.357-.858.713-2.426.713-3.178 0-.487.032-.55.62-1.133.346-.34.67-.71.734-.816.105-.201.094-.201-.44-.021-.893.317-1.019.275-.578-.202.325-.339.713-.953.713-1.133 0-.032-.157.021-.335.117-.19.106-.609.264-.924.36l-.566.18-.514-.35c-.284-.19-.682-.402-.892-.466-.535-.148-1.354-.127-1.836.043-1.312.476-2.14 1.705-2.046 3.05z" fill="#FFF"/></g></svg>
